flutter/assets/toolbar/settings.svg

<svg width="18" height="18" version="1.1" viewBox="0 0 4.7625 4.7625" xml:space="preserve" xmlns="http://www.w3.org/2000/svg"><g transform="translate(-84.705 -119.66)"><g transform="matrix(.26458 0 0 .26458 84.705 119.66)" fill="none"><path d="m12.222 2.6667 2.1482-0.66671c0.2222 0 0.3704 0 0.5185 0.14816l0.963 0.9629c0.1481 0.14816 0.1481 0.29632 0.1481 0.51857l-0.5926 2.2223c-0.0741 0.22224 0.1481 0.7408 0.3703 0.88894l1.926 1.111c0.2222 0.14816 0.2963 0.29632 0.2963 0.51857v1.2592c0 0.22224-0.0741 0.44451-0.2963 0.51861l-1.926 1.111c-0.2222 0.1482-0.4444 0.6667-0.3703 0.9629l0.5926 2.1482c0.0741 0.2222 0 0.3704-0.1481 0.5185l-0.963 0.963c-0.1481 0.1481-0.2963 0.1481-0.5185 0.1481l-2.1482-0.5926c-0.2963-0.0741-0.8149 0.1481-0.9629 0.3703l-1.111 1.926c-0.0741 0.2222-0.29636 0.2963-0.5186 0.2963h-1.2592c-0.22224 0-0.37039-0.0741-0.51857-0.2963l-1.111-1.926c-0.14816-0.2222-0.6667-0.4444-0.88894-0.3703l-2.2223 0.5926c-0.14816 0.0741-0.37039 0-0.51857-0.1481l-0.9629-0.963c-0.14816-0.1481-0.14816-0.2963-0.14816-0.5185l0.66671-2.1482c0-0.2963-0.14816-0.8149-0.44447-0.9629l-1.9259-1.111c-0.22224-0.0741-0.29632-0.29636-0.29632-0.51861v-1.2592c0-0.22224 0.07408-0.37039 0.29632-0.51857l1.9259-1.111c0.29632-0.14816 0.44447-0.6667 0.44447-0.88894l-0.66671-2.2223c0-0.14816 0-0.37039 0.14816-0.51857l0.9629-0.9629c0.14816-0.14816 0.29632-0.14816 0.51857-0.14816l2.2223 0.66671c0.22224 0 0.7408-0.14816 0.88894-0.44447l1.111-1.9259c0.14816-0.22224 0.29632-0.29632 0.51857-0.29632h1.2592c0.22224 0 0.4445 0.07408 0.5186 0.29632l1.111 1.9259c0.1482 0.29632 0.6667 0.44447 0.9629 0.44447zm-3.1852 2.5926c2.074 0 3.7778 1.6296 3.7778 3.7778 0 2.0741-1.7037 3.7778-3.7778 3.7778-2.1482 0-3.7778-1.7037-3.7778-3.7778 0-2.1482 1.6296-3.7778 3.7778-3.7778z" clip-rule="evenodd" fill="#fff" fill-rule="evenodd"/></g></g></svg>

<svg width="18" height="18" viewBox="0 0 18 18" fill="none" xmlns="http://www.w3.org/2000/svg">
<path fill-rule="evenodd" clip-rule="evenodd" d="M12.2222 2.66673L14.3704 2.00002C14.5926 2.00002 14.7408 2.00002 14.8889 2.14818L15.8519 3.11108C16 3.25924 16 3.4074 16 3.62965L15.4074 5.85191C15.3333 6.07415 15.5555 6.59271 15.7777 6.74085L17.7037 7.8519C17.9259 8.00006 18 8.14822 18 8.37047V9.62969C18 9.85193 17.9259 10.0742 17.7037 10.1483L15.7777 11.2593C15.5555 11.4075 15.3333 11.926 15.4074 12.2222L16 14.3704C16.0741 14.5926 16 14.7408 15.8519 14.8889L14.8889 15.8519C14.7408 16 14.5926 16 14.3704 16L12.2222 15.4074C11.9259 15.3333 11.4073 15.5555 11.2593 15.7777L10.1483 17.7037C10.0742 17.9259 9.85194 18 9.6297 18H8.37047C8.14823 18 8.00008 17.9259 7.8519 17.7037L6.74085 15.7777C6.59269 15.5555 6.07415 15.3333 5.85191 15.4074L3.62965 16C3.48149 16.0741 3.25926 16 3.11108 15.8519L2.14818 14.8889C2.00002 14.7408 2.00002 14.5926 2.00002 14.3704L2.66673 12.2222C2.66673 11.9259 2.51857 11.4073 2.22226 11.2593L0.296319 10.1483C0.0740798 10.0742 0 9.85194 0 9.62969V8.37047C0 8.14823 0.0740798 8.00008 0.296319 7.8519L2.22226 6.74085C2.51858 6.59269 2.66673 6.07415 2.66673 5.85191L2.00002 3.62965C2.00002 3.48149 2.00002 3.25926 2.14818 3.11108L3.11108 2.14818C3.25924 2.00002 3.4074 2.00002 3.62965 2.00002L5.85191 2.66673C6.07415 2.66673 6.59271 2.51857 6.74085 2.22226L7.8519 0.296319C8.00006 0.0740797 8.14822 0 8.37047 0H9.6297C9.85194 0 10.0742 0.0740797 10.1483 0.296319L11.2593 2.22226C11.4075 2.51858 11.926 2.66673 12.2222 2.66673ZM9.03705 5.25937C11.1111 5.25937 12.8148 6.88899 12.8148 9.03713C12.8148 11.1112 11.1111 12.8149 9.03705 12.8149C6.88887 12.8149 5.25929 11.1112 5.25929 9.03713C5.25929 6.88895 6.8889 5.25937 9.03705 5.25937Z" fill="white"/>
</svg>
